!!!OTL: SIST EBENE MOENSCH UF ERDE
!!!ARE: Europa, Mitteleuropa, Schweiz, Kanton Bern
!!!SCT: E0420
!!!YEM: Copyright 1995, estate of Helmut Schaffrath.
**kern
*ICvox
*Ivox
*M2/4
*k[]
*a:
{8e
=1
8a
16a
16g#
8a
8b
=2
8ccn
8a
4b}
=3
{8ccn
16ccn
16a
4b
=4
4ee
8r}
{8e
=5
8a
16a
16g#
8a
8b
=6
8ccn
8a
4b}
=7
{8ccn
16ccn
16a
4b
=8
4ee
8r}
{8ee
=9
8b
16b
16a
8g#
8a
=10
8b
16b
16ccn
8b}
{8ee
=11
16dd
16ccn
16b
16a
8g#
16a
16a
=12
16b
16a
16b
16ccn
8b}
{16a
16b
=13
8ccn
16ccn
16ccn
8dd
8dd
=14
4ee
8dd}
{8dd
=15
8ccn
8a
8b
16b
16ccn
=16
4.a}
==
!!!AGN: Liebes - Lied
!!!ONB: ESAC (Essen Associative Code) Database: ERK1
!!!AMT: simple duple
!!!AIN: vox
!!!EED: Helmut Schaffrath
!!!EEV: 1.0
*-
